assets/icons/24px/outline/house-24px.svg

<svg width="24" height="24" viewBox="0 0 24 24" fill="none" xmlns="http://www.w3.org/2000/svg">
<path d="M4.58579 20.4142L3.87868 21.1213L4.58579 20.4142ZM19.4142 20.4142L18.7071 19.7071L19.4142 20.4142ZM19 10V17H21V10H19ZM16 20H8V22H16V20ZM5 17V10H3V17H5ZM8 20C7.02892 20 6.40121 19.9979 5.9387 19.9357C5.50496 19.8774 5.36902 19.7832 5.29289 19.7071L3.87868 21.1213C4.38834 21.631 5.01669 21.8297 5.67221 21.9179C6.29896 22.0021 7.08546 22 8 22V20ZM3 17C3 17.9145 2.99788 18.701 3.08214 19.3278C3.17027 19.9833 3.36902 20.6117 3.87868 21.1213L5.29289 19.7071C5.21677 19.631 5.12262 19.495 5.06431 19.0613C5.00212 18.5988 5 17.9711 5 17H3ZM19 17C19 17.9711 18.9979 18.5988 18.9357 19.0613C18.8774 19.495 18.7832 19.631 18.7071 19.7071L20.1213 21.1213C20.631 20.6117 20.8297 19.9833 20.9179 19.3278C21.0021 18.701 21 17.9145 21 17H19ZM16 22C16.9145 22 17.701 22.0021 18.3278 21.9179C18.9833 21.8297 19.6117 21.631 20.1213 21.1213L18.7071 19.7071C18.631 19.7832 18.495 19.8774 18.0613 19.9357C17.5988 19.9979 16.9711 20 16 20V22Z" fill="white"/>
<path d="M3 11L9.17158 4.82842C10.5049 3.49509 11.1716 2.82843 12 2.82843C12.8284 2.82843 13.4951 3.49509 14.8284 4.82843L21 11" stroke="white" stroke-width="2" stroke-linecap="round"/>
<path d="M9 17C9 16.0681 9 15.6022 9.15224 15.2346C9.35523 14.7446 9.74458 14.3552 10.2346 14.1522C10.6022 14 11.0681 14 12 14V14C12.9319 14 13.3978 14 13.7654 14.1522C14.2554 14.3552 14.6448 14.7446 14.8478 15.2346C15 15.6022 15 16.0681 15 17V21H9V17Z" fill="white"/>
<path d="M16 4.5C16 4.03406 16 3.80109 16.0761 3.61732C16.1776 3.37229 16.3723 3.17761 16.6173 3.07612C16.8011 3 17.0341 3 17.5 3V3C17.9659 3 18.1989 3 18.3827 3.07612C18.6277 3.17761 18.8224 3.37229 18.9239 3.61732C19 3.80109 19 4.03406 19 4.5V10L16 6.5V4.5Z" fill="white"/>
</svg>

<svg width="24" height="24" fill="none" xmlns="http://www.w3.org/2000/svg"><path d="M4.586 20.414l-.707.707.707-.707zm14.828 0l-.707-.707.707.707zM19 10v7h2v-7h-2zm-3 10H8v2h8v-2zM5 17v-7H3v7h2zm3 3c-.971 0-1.599-.002-2.061-.064-.434-.059-.57-.153-.646-.229l-1.414 1.414c.51.51 1.138.709 1.793.797C6.3 22.002 7.085 22 8 22v-2zm-5-3c0 .915-.002 1.701.082 2.328.088.655.287 1.284.797 1.793l1.414-1.414c-.076-.076-.17-.212-.229-.646C5.002 18.6 5 17.971 5 17H3zm16 0c0 .971-.002 1.599-.064 2.061-.059.434-.153.57-.229.646l1.414 1.414c.51-.51.709-1.138.797-1.793C21.002 18.7 21 17.915 21 17h-2zm-3 5c.915 0 1.701.002 2.328-.082.655-.088 1.284-.287 1.793-.797l-1.414-1.414c-.076.076-.212.17-.646.229-.462.062-1.09.064-2.061.064v2z" fill="#fff"/><path d="M3 11l6.172-6.172c1.333-1.333 2-2 2.828-2 .828 0 1.495.667 2.828 2L21 11" stroke="#fff" stroke-width="2" stroke-linecap="round"/><path d="M9 17c0-.932 0-1.398.152-1.765a2 2 0 0 1 1.083-1.083C10.602 14 11.068 14 12 14c.932 0 1.398 0 1.765.152a2 2 0 0 1 1.083 1.083C15 15.602 15 16.068 15 17v4H9v-4zm7-12.5c0-.466 0-.699.076-.883a1 1 0 0 1 .541-.54C16.801 3 17.034 3 17.5 3s.699 0 .883.076a1 1 0 0 1 .54.541c.077.184.077.417.077.883V10l-3-3.5v-2z" fill="#fff"/></svg>
